assets/icons/qvision/flip_to_back.svg

<svg xmlns="http://www.w3.org/2000/svg" height="24" viewBox="0 0 24 24" width="24"><path d="M0 0h24v24H0z" fill="none"/><path d="M9 7H7v2h2V7zm0 4H7v2h2v-2zm0-8c-1.11 0-2 .9-2 2h2V3zm4 12h-2v2h2v-2zm6-12v2h2c0-1.1-.9-2-2-2zm-6 0h-2v2h2V3zM9 17v-2H7c0 1.1.89 2 2 2zm10-4h2v-2h-2v2zm0-4h2V7h-2v2zm0 8c1.1 0 2-.9 2-2h-2v2zM5 7H3v12c0 1.1.89 2 2 2h12v-2H5V7zm10-2h2V3h-2v2zm0 12h2v-2h-2v2z"/></svg>

<svg width="24" height="24" viewBox="0 0 24 24" fill="none" xmlns="http://www.w3.org/2000/svg">
<g clip-path="url(#clip0_147_4226)">
<path d="M9 7H7V9H9V7ZM9 11H7V13H9V11ZM9 3C7.89 3 7 3.9 7 5H9V3ZM13 15H11V17H13V15ZM19 3V5H21C21 3.9 20.1 3 19 3ZM13 3H11V5H13V3ZM9 17V15H7C7 16.1 7.89 17 9 17ZM19 13H21V11H19V13ZM19 9H21V7H19V9ZM19 17C20.1 17 21 16.1 21 15H19V17ZM5 7H3V19C3 20.1 3.89 21 5 21H17V19H5V7ZM15 5H17V3H15V5ZM15 17H17V15H15V17Z" fill="#323232"/>
</g>
<defs>
<clipPath id="clip0_147_4226">
<rect width="24" height="24" fill="white"/>
</clipPath>
</defs>
</svg>
